X:1
T:Prayer (Abbot), 77.77
T:Prayer (Abbot), 77.77
T:Asahel Abbot
T:Public Domain Courtesy of the Cyber Hymnal™
C:Asahel Abbot
Z:Public Domain
Z:Courtesy of the Cyber Hymnal™
%%score 1 2
L:1/8
Q:1/4=115
M:4/4
K:Eb
V:1 treble 
V:2 bass 
V:1
 [GB]2 [GB]2 | [GB]2 [EG]2 | [FA]2 [GB]2 | [EG]4 | [GB]2 [GB]2 | [Ac]2 [Ac]2 | [GB]2 [EG]2 | %7
 [DF]4 | [DA]2 [DA]2 | [EG]2 [EG]2 | [GB]2 [Ge]2 | [GB]4 | [Ac]2 [Ac]2 | [GB]2 [EG]2 | %14
 [FA]2 [DF]2 | [EG]4 |] %16
V:2
 [E,E]2 [E,E]2 | [E,B,]2 [E,B,]2 | [B,,D]2 [B,,D]2 | [E,B,]4 | [E,E]2 [E,E]2 | [A,E]2 [A,E]2 | %6
 [E,E]2 [E,B,]2 | [B,,B,]4 | [B,,B,]2 [B,,B,]2 | [E,B,]2 [E,B,]2 | [E,E]2 [E,B,]2 | [E,E]4 | %12
 [A,E]2 [A,E]2 | [E,E]2 [E,B,]2 | [A,,C]2 [B,,B,]2 | [E,B,]4 |] %16

